static/assets/images/networks/tenet.svg

<svg width="256" height="256" viewBox="0 0 256 256" fill="none" xmlns="http://www.w3.org/2000/svg">
<path d="M128 256C198.692 256 256 198.692 256 128C256 57.3076 198.692 0 128 0C57.3076 0 0 57.3076 0 128C0 198.692 57.3076 256 128 256Z" fill="url(#paint0_linear_10889_821)"/>
<path d="M204.47 77.056C199.764 68.9461 191.337 64.0891 181.923 64.0891H130.017C129.345 64.0443 128.672 64 128 64C127.327 64 126.655 64.0443 125.983 64.0891H74.0763C64.6635 64.0891 56.2363 68.9461 51.5299 77.056C46.8234 85.1659 46.8234 94.8357 51.5299 102.946L105.453 195.764C110.16 203.874 118.587 208.73 128 208.73C137.413 208.73 145.84 203.874 150.547 195.764L204.47 102.946C209.177 94.88 209.177 85.1659 204.47 77.056ZM138.086 188.634C135.979 192.243 132.213 194.427 128 194.427C123.787 194.427 120.021 192.243 117.915 188.634L87.5685 136.41L117.915 84.1408C119.797 80.888 122.98 78.8384 126.655 78.4373H129.345C133.021 78.8384 136.203 80.9328 138.086 84.1408L168.431 136.365L138.086 188.634Z" fill="white"/>
<defs>
<linearGradient id="paint0_linear_10889_821" x1="0" y1="128" x2="256" y2="128" gradientUnits="userSpaceOnUse">
<stop stop-color="#6ED396"/>
<stop offset="1" stop-color="#4977EA"/>
</linearGradient>
</defs>
</svg>

<svg xmlns="http://www.w3.org/2000/svg" fill="none" viewBox="0 0 256 256"><path fill="url(#paint0_linear_10889_821)" d="M128 256c70.692 0 128-57.308 128-128S198.692 0 128 0 0 57.308 0 128s57.308 128 128 128"/><path fill="#fff" d="M204.47 77.056c-4.706-8.11-13.133-12.967-22.547-12.967h-51.906A30 30 0 0 0 128 64c-.673 0-1.345.044-2.017.09H74.076c-9.412 0-17.84 4.856-22.546 12.966-4.707 8.11-4.707 17.78 0 25.89l53.923 92.818c4.707 8.11 13.134 12.966 22.547 12.966s17.84-4.856 22.547-12.966l53.923-92.818c4.707-8.066 4.707-17.78 0-25.89m-66.384 111.578c-2.107 3.609-5.873 5.793-10.086 5.793s-7.979-2.184-10.085-5.793L87.568 136.41l30.347-52.27c1.882-3.252 5.065-5.302 8.74-5.703h2.69c3.676.401 6.858 2.496 8.741 5.704l30.345 52.224z"/><defs><linearGradient id="paint0_linear_10889_821" x1="0" x2="256" y1="128" y2="128" gradientUnits="userSpaceOnUse"><stop stop-color="#6ED396"/><stop offset="1" stop-color="#4977EA"/></linearGradient></defs></svg>
